client/public/img/game/shared/decals/vaccine_syringe_residue.svg

<svg xmlns="http://www.w3.org/2000/svg" width="27.372" height="87.206" viewBox="0 0 7.242 23.073"><g class="cls-8" style="opacity:.7" transform="scale(.49476 .51235)"><path d="M1.272 5.623C.676 4.417 2.931 2.313 3.28 1.987c.196-.183 2.774-2.555 3.799-1.86.668.453-.151 1.647.571 2.88 1.004 1.713 3.544 1.041 4.057 2.347.465 1.184-.984 3.359-2.473 3.521-1.385.15-1.603-1.572-3.874-1.954-.906-.153-1.736-.025-3.035-.578-.563-.24-.888-.384-1.054-.719Z" class="cls-7" style="fill:#9b1e95;fill-rule:evenodd"/><path d="M6.188 16.591c1.135.119 1.142-8.645 1.142-8.645 0 8.749 1.174 8.645 1.174 8.645z" class="cls-4" style="fill:#18181b;fill-rule:evenodd;stroke:#242424;stroke-width:1.014px;stroke-linecap:round;stroke-linejoin:round"/><path d="M10.914 41.302a2.711 2.711 0 1 1 0-5.423 2.711 2.711 0 0 1 0 5.423m-7.189 0a2.711 2.711 0 1 1 0-5.423 2.711 2.711 0 0 1 0 5.423" class="cls-3" style="fill:none;stroke:#242424;stroke-width:2.027px;stroke-linecap:round;stroke-linejoin:round"/><path d="M7.338 20.422v19.973s-.325 3.017 3.236 3.019v.867l-6.525.003v-.871s3.29.493 3.29-3.017z" class="cls-2" style="fill:#242424;fill-rule:evenodd;stroke:#242424;stroke-width:1.5px;stroke-linecap:round;stroke-linejoin:round"/><path d="M10.192 33.851s-.103 2.229-2.845 2.231c-2.743-.001-2.845-2.231-2.845-2.231v-17.26h5.688z" class="cls-1" style="fill:none;fill-rule:evenodd;stroke:#242424;stroke-width:2.027px;stroke-linecap:round;stroke-linejoin:round"/><path d="M4.515 20.421s.257 4.307 2.832 4.308c2.573 0 2.817-4.307 2.817-4.307z" class="cls-5" style="fill:#9e9eb2;fill-rule:evenodd;stroke:#242424;stroke-width:2.027px;stroke-linecap:round;stroke-linejoin:round"/><path d="M4.501 16.592h5.691v3.829H4.501z" class="cls-6" style="fill:#9b1e95;stroke:#242424;stroke-width:2.027px;stroke-linecap:round;stroke-linejoin:round" transform="rotate(180 7.346 18.506)"/><circle cx="11.622" cy="3.067" r=".745" class="cls-9" style="fill:#9b1e95"/><circle cx="3.877" cy="7.812" r=".574" class="cls-9" style="fill:#9b1e95"/><ellipse cx="12.197" cy="7.557" class="cls-9" rx=".83" ry=".372" style="fill:#9b1e95" transform="rotate(-60 12.197 7.557)"/></g></svg>

<?xml version="1.0" encoding="UTF-8" standalone="no"?>
<svg
   width="27.372475"
   height="87.206169"
   viewBox="0 0 7.2422563 23.072624"
   version="1.1"
   id="svg14"
   sodipodi:docname="vaccine_syringe_residue.svg"
   inkscape:version="1.4 (86a8ad7, 2024-10-11)"
   xmlns:inkscape="http://www.inkscape.org/namespaces/inkscape"
   xmlns:sodipodi="http://sodipodi.sourceforge.net/DTD/sodipodi-0.dtd"
   xmlns:xlink="http://www.w3.org/1999/xlink"
   xmlns="http://www.w3.org/2000/svg"
   xmlns:svg="http://www.w3.org/2000/svg">
  <sodipodi:namedview
     id="namedview14"
     pagecolor="#ffffff"
     bordercolor="#000000"
     borderopacity="0.25"
     inkscape:showpageshadow="2"
     inkscape:pageopacity="0.0"
     inkscape:pagecheckerboard="0"
     inkscape:deskcolor="#d1d1d1"
     inkscape:zoom="5.2029345"
     inkscape:cx="19.700421"
     inkscape:cy="30.655777"
     inkscape:window-width="1920"
     inkscape:window-height="991"
     inkscape:window-x="-9"
     inkscape:window-y="-9"
     inkscape:window-maximized="1"
     inkscape:current-layer="svg14" />
  <defs
     id="defs2">
    <linearGradient
       id="a">
      <stop
         offset="0"
         style="stop-color:#ff8f1b;stop-opacity:1"
         id="stop1" />
      <stop
         offset="1"
         style="stop-color:#ff5600;stop-opacity:1"
         id="stop2" />
    </linearGradient>
    <linearGradient
       xlink:href="#a"
       id="b"
       x1="-170.31799"
       x2="-162.078"
       y1="-63.798"
       y2="-63.798"
       gradientTransform="matrix(1.21673,0,0,1.21673,36.036,13.84)"
       gradientUnits="userSpaceOnUse" />
  </defs>
  <g
     class="cls-8"
     id="g7-0"
     style="opacity:0.7"
     transform="matrix(0.49475724,0,0,0.51234792,-2.4739089e-4,-5.645428e-5)">
    <path
       class="cls-7"
       d="M 1.272,5.623 C 0.676,4.417 2.931,2.313 3.28,1.987 3.476,1.804 6.054,-0.568 7.079,0.127 7.747,0.58 6.928,1.774 7.65,3.007 8.654,4.72 11.194,4.048 11.707,5.354 12.172,6.538 10.723,8.713 9.234,8.875 7.849,9.025 7.631,7.303 5.36,6.921 4.454,6.768 3.624,6.896 2.325,6.343 1.762,6.103 1.437,5.959 1.271,5.624 Z"
       id="path1-9"
       style="fill:#9b1e95;fill-rule:evenodd" />
    <path
       class="cls-4"
       d="M 6.188,16.591 C 7.323,16.71 7.33,7.946 7.33,7.946 c 0,8.749 1.174,8.645 1.174,8.645 z"
       id="path2-4"
       style="fill:#18181b;fill-rule:evenodd;stroke:#242424;stroke-width:1.014px;stroke-linecap:round;stroke-linejoin:round" />
    <path
       class="cls-3"
       d="m 10.914,41.302 c -1.497,0 -2.711,-1.214 -2.711,-2.711 0,-1.497 1.214,-2.711 2.711,-2.711 1.497,0 2.711,1.214 2.711,2.711 0,1.497 -1.214,2.711 -2.711,2.711 m -7.189,0 c -1.497,0 -2.711,-1.214 -2.711,-2.711 0,-1.497 1.214,-2.711 2.711,-2.711 1.497,0 2.711,1.214 2.711,2.711 0,1.497 -1.214,2.711 -2.711,2.711"
       id="path3-8"
       style="fill:none;stroke:#242424;stroke-width:2.027px;stroke-linecap:round;stroke-linejoin:round" />
    <path
       class="cls-2"
       d="m 7.338,20.422 v 19.973 c 0,0 -0.325,3.017 3.236,3.019 v 0.867 c 0,0 -6.525,0.003 -6.525,0.003 v -0.871 c 0,0 3.29,0.493 3.29,-3.017 V 20.423 Z"
       id="path4-8"
       style="fill:#242424;fill-rule:evenodd;stroke:#242424;stroke-width:1.5px;stroke-linecap:round;stroke-linejoin:round" />
    <path
       class="cls-1"
       d="m 10.192,33.851 c 0,0 -0.103,2.229 -2.845,2.231 C 4.604,36.081 4.502,33.851 4.502,33.851 v -17.26 h 5.688 c 0,0 0.003,17.26 0.003,17.26 z"
       id="path5-2"
       style="fill:none;fill-rule:evenodd;stroke:#242424;stroke-width:2.027px;stroke-linecap:round;stroke-linejoin:round" />
    <path
       class="cls-5"
       d="m 4.515,20.421 c 0,0 0.257,4.307 2.832,4.308 2.573,0 2.817,-4.307 2.817,-4.307 H 4.515 Z"
       id="path6-4"
       style="fill:#9e9eb2;fill-rule:evenodd;stroke:#242424;stroke-width:2.027px;stroke-linecap:round;stroke-linejoin:round" />
    <rect
       class="cls-6"
       x="4.5009999"
       y="16.591999"
       width="5.691"
       height="3.829"
       transform="rotate(180,7.3465,18.5065)"
       id="rect6-5"
       style="fill:#9b1e95;stroke:#242424;stroke-width:2.027px;stroke-linecap:round;stroke-linejoin:round" />
    <circle
       class="cls-9"
       cx="11.622"
       cy="3.0669999"
       r="0.745"
       id="circle6-5"
       style="fill:#9b1e95" />
    <circle
       class="cls-9"
       cx="3.8770001"
       cy="7.8119998"
       r="0.574"
       id="circle7-1"
       style="fill:#9b1e95" />
    <ellipse
       class="cls-9"
       cx="12.197"
       cy="7.5570002"
       rx="0.82999998"
       ry="0.37200001"
       transform="rotate(-60,12.19667,7.5567473)"
       id="ellipse7-7"
       style="fill:#9b1e95" />
  </g>
</svg>
